X:157
T:Irish Washer Woman #2, The
C:Joe Buchanan's Scottish Tome - Page 261.1
I:261 1
Z:Carl Allison
R:Jig
L:1/8
M:6/8
K:G
"D7"dc | "G"BGG DGG | BGB dcB | "D"cAA EAA | cAc edc |
"G"BGG DGG | BGB dcB | "C"cBc "D"Adc | "G"BGG G2 d :|
gfg GBd | gfg aag | "D"fdd Add | fdf agf |
"C"egg "G"dgg | "C"cgg "G"Bgg | "D"cBc Adc | "G"BGG G2 :|
